packages/icons/raw/imported/TextIncertLine.svg

<svg width="32" height="32" viewBox="0 0 32 32" fill="none" xmlns="http://www.w3.org/2000/svg">
<path d="M20.3846 25.5C20.6607 25.5 20.8846 25.2761 20.8846 25C20.8846 24.7238 20.6607 24.5 20.3846 24.5V25.5ZM11.6154 24.5C11.3392 24.5 11.1154 24.7238 11.1154 25C11.1154 25.2761 11.3392 25.5 11.6154 25.5V24.5ZM20.3846 7.5C20.6608 7.5 20.8846 7.27614 20.8846 7C20.8846 6.72386 20.6608 6.5 20.3846 6.5V7.5ZM11.6154 6.5C11.3392 6.5 11.1154 6.72386 11.1154 7C11.1154 7.27614 11.3392 7.5 11.6154 7.5V6.5ZM21.5 21.25V20.75V21.25ZM10.5 21.25V20.75H10.5L10.5 21.25ZM25.5 14.75H26H25.5ZM25.5 17.25H25H25.5ZM21.5 10.75L21.5 10.25L21.5 10.75ZM10.5 10.75L10.5 11.25L10.5 10.75ZM20.3846 24.5H11.6154V25.5H20.3846V24.5ZM20.3846 6.5H11.6154V7.5H20.3846V6.5ZM6 14.75L6 17.25H7V14.75H6ZM21.5 20.75L10.5 20.75V21.75L21.5 21.75V20.75ZM25 14.75V17.25H26V14.75H25ZM21.5 10.25L10.5 10.25L10.5 11.25L21.5 11.25L21.5 10.25ZM26 14.75C26 12.2647 23.9853 10.25 21.5 10.25L21.5 11.25C23.433 11.25 25 12.817 25 14.75H26ZM7 14.75C7 12.817 8.56701 11.25 10.5 11.25L10.5 10.25C8.01472 10.25 6 12.2647 6 14.75H7ZM6 17.25C6 19.7352 8.01472 21.75 10.5 21.75L10.5 20.75C8.567 20.75 7 19.183 7 17.25H6ZM21.5 21.75C23.9853 21.75 26 19.7352 26 17.25H25C25 19.183 23.433 20.75 21.5 20.75V21.75Z" fill="black"/>
</svg>

<svg width="32" height="32" fill="none" xmlns="http://www.w3.org/2000/svg"><path d="M20.385 25.5a.5.5 0 0 0 0-1v1Zm-8.77-1a.5.5 0 1 0 0 1v-1Zm8.77-17a.5.5 0 1 0 0-1v1Zm-8.77-1a.5.5 0 1 0 0 1v-1ZM21.5 21.25v-.5.5Zm-11 0v-.5.5Zm15-6.5h.5-.5Zm0 2.5H25h.5Zm-4-6.5v-.5.5Zm-11 0v.5-.5Zm9.885 13.75h-8.77v1h8.77v-1Zm0-18h-8.77v1h8.77v-1ZM6 14.75v2.5h1v-2.5H6Zm15.5 6h-11v1h11v-1Zm3.5-6v2.5h1v-2.5h-1Zm-3.5-4.5h-11v1h11v-1Zm4.5 4.5a4.5 4.5 0 0 0-4.5-4.5v1a3.5 3.5 0 0 1 3.5 3.5h1Zm-19 0a3.5 3.5 0 0 1 3.5-3.5v-1a4.5 4.5 0 0 0-4.5 4.5h1Zm-1 2.5a4.5 4.5 0 0 0 4.5 4.5v-1a3.5 3.5 0 0 1-3.5-3.5H6Zm15.5 4.5a4.5 4.5 0 0 0 4.5-4.5h-1a3.5 3.5 0 0 1-3.5 3.5v1Z" fill="#000"/></svg>
